X:169
%%etbk:tnset id:55,pos:5,rep:3x,ant:
%%etbk:tnset id:64,pos:2,rep:2x-Stop,ant:
%%etbk:tnset id:66,pos:2,rep:3x,ant:
%%etbk:pldat 2016-06-23T19:18,2016-06-23T19:08,2016-06-22T16:14,2016-06-21T16:14,2016-06-20T18:01,2016-06-18T15:49,2016-06-16T19:17,2016-05-05T14:30,2016-05-03T17:19,2016-03-11T17:09,2016-03-10T18:29,2016-03-09T16:09,2016-03-08T16:33,2016-03-07T18:42,2016-03-05T15:06,2016-02-26T17:34,2016-02-23T17:07,2016-02-22T18:48,2016-02-08T18:17,2015-11-03T17:02,2015-10-29T18:21,2015-10-27T15:29,2015-10-24T13:46,2015-10-20T16:57,2015-10-05T19:28,2015-06-26T17:21,2015-06-23T18:36,2015-06-22T18:49,2015-06-16T17:18,2015-05-28T18:12,2015-04-23T18:14,2015-03-13T19:03,2015-03-12T18:55,2015-03-10T17:02,2015-03-06T15:47,2015-02-16T19:19,2015-02-03T16:28,2015-01-27T16:39,2014-12-07T10:13,2014-11-05T18:25,2014-11-02T14:42,2014-10-30T19:06,2014-10-28T16:47,2014-10-28T15:28,2014-10-25T15:24,2014-10-19T15:47,2014-10-13T18:30,2014-10-10T15:33,2014-10-05T16:25,2014-10-03T15:35,2014-09-27T10:18,2014-09-24T17:01,2014-08-21T19:11,2014-08-20T18:52,2014-08-18T18:39,2014-06-23T18:45,2014-06-10T18:12,2014-05-28T16:50,2014-05-17T14:21,2014-03-05T18:14,2014-03-01T17:29,2014-02-27T18:42,2014-02-20T18:41,2014-01-22T15:43,2014-01-21T16:49,2014-01-20T18:24,2014-01-19T13:15,2014-01-18T13:53,2014-01-17T17:58,2014-01-15T15:55,2014-01-14T18:39,2014-01-12T15:09,2014-01-09T18:12,2014-01-07T15:42,2014-01-06T18:28,2014-01-03T16:09,2013-12-29T13:08,2013-12-28T13:00,2013-12-27T16:44,2013-12-22T16:39,2013-12-17T16:14,2013-12-09T18:52,2013-10-30T16:42,2013-10-29T16:16,2013-10-28T18:24,2013-10-27T14:21,2013-10-23T19:09,2013-10-18T15:50,2013-10-17T19:14,2013-10-15T18:39,2013-10-13T16:12,2013-10-13T14:56,2013-10-11T18:07,2013-10-09T15:23,2013-10-07T18:15,2013-10-05T15:04,2013-08-29T16:51,2013-05-21T16:49
T:Hat for Hannah
Z: Piano Box Version by Martin Fleischmann
H: Created 2013-02-19 /  Last Modified 2013-02-19
M: 4/4
L: 1/8
R: reel
K: Amaj
|: "A"!5!e!3!c!2!c!3!c !1!A!2!c!3!e!5!a | "D"!3!f!1!dd!2!c !1!d!3!f!5!a!3!f | "A"!1!e2!3!cc !1!AB!3!c!1!A | "E"!4!B2!2!GB !1!EB!2!G!1!B | 
"A"!5!e2!3!cc  !1!A!2!c!3!e!5!a | "D"!3!f!1!dd!2!c !1!dfed | "A"!2!e2!5!a!1!e !3!f!5!a!1!e!3!c | "E"!2!B!1!A!2!G!4!B "A"!1!A4 :|
|: "bm"!4!f!1!B !3!(3B!2!B!1!B !1!B3!5!a | "A"!3!e2!2!c{e}c !1!ABcA | !1!A2!3!cA !5!eA!5!fA | !1!ABcA !2!B!5!e"E"e2 |
"bm"!4!f!1!B!2!B!1!B !1!B!2!c!3!d!5!f | "A"!4!e2!2!c{g}c !1!A!2!c!5!a!2!c | "bm"!1!B2!3!dB "A"!2!c2!4!ec |1 "E"!1!defg !5!agfe :|2 "E"!2!B!1!A!2!G!4!B !1!A4 ||


